public/editor-src/editor/icons/editor/user-phone-number.svg

<svg id="nc-user-phoneNumber" width="16px" height="16px" viewBox="0 0 16 16" version="1.1" xmlns="http://www.w3.org/2000/svg" xmlns:xlink="http://www.w3.org/1999/xlink">
    <g stroke="none" stroke-width="1" fill="currentColor" fill-rule="evenodd">
        <path 
        d="M3.34750826,2.045 C4.01081018,1.87249879 4.70147976,2.20556065 4.97950826,2.832 L4.97950826,2.832 L6.17950826,5.556 C6.43861775,6.13628021 6.27437655,6.81829181 5.77950826,7.217 L5.77950826,7.217 L4.80050826,8 C5.62905291,9.28060105 6.72180822,10.3692649 8.00550826,11.193 L8.00550826,11.193 L8.78850826,10.214 C9.18735363,9.71865595 9.86996043,9.55437032 10.4505083,9.814 L10.4505083,9.814 L13.1675083,11.021 C13.79553,11.295432 14.1308977,11.9856704 13.9585083,12.649 L13.9585083,12.649 L13.3585083,14.949 C13.180689,15.639421 12.5124214,16.0859374 11.8065083,15.986 C5.69622057,15.1087973 0.894820627,10.3098404 0.0145082616,4.2 C-0.0874313872,3.49422881 0.357402963,2.82460885 1.04750826,2.645 L1.04750826,2.645 Z M8.00050826,4 C10.2096473,4 12.0005083,5.790861 12.0005083,8 C12.0005083,8.55228475 11.552793,9 11.0005083,9 C10.4482235,9 10.0005083,8.55228475 10.0005083,8 C10.0005083,6.8954305 9.10507776,6 8.00050826,6 C7.44822351,6 7.00050826,5.55228475 7.00050826,5 C7.00050826,4.44771525 7.44822351,4 8.00050826,4 Z M8.00050826,-4.79616347e-14 C12.4167302,0.00495988455 15.9955484,3.58377808 16.0005083,8 C16.0005083,8.55228473 15.552793,9 15.0005083,9 C14.4482235,9 14.0005083,8.55228473 14.0005083,8 C13.9972009,4.68766243 11.3128458,2.00330738 8.00050826,2 C7.44822351,2 7.00050826,1.55228475 7.00050826,1 C7.00050826,0.44771525 7.44822351,-4.79616347e-14 8.00050826,-4.79616347e-14 Z" 
        fill="currentColor"
        fill-rule="nonzero"
        ></path>
    </g>
</svg>

<svg xmlns="http://www.w3.org/2000/svg" width="16" height="16"><path fill="currentColor" fill-rule="nonzero" d="M3.348 2.045a1.4 1.4 0 0 1 1.632.787l1.2 2.724a1.4 1.4 0 0 1-.4 1.661L4.8 8a10.7 10.7 0 0 0 3.206 3.193l.783-.979a1.4 1.4 0 0 1 1.662-.4l2.717 1.207c.628.274.963.965.79 1.628l-.6 2.3a1.4 1.4 0 0 1-1.551 1.037A13.911 13.911 0 0 1 .015 4.2a1.4 1.4 0 0 1 1.033-1.555ZM8 4a4 4 0 0 1 4 4 1 1 0 0 1-2 0 2 2 0 0 0-2-2 1 1 0 1 1 0-2Zm0-4a8.009 8.009 0 0 1 8 8 1 1 0 0 1-2 0 6.006 6.006 0 0 0-6-6 1 1 0 1 1 0-2Z"/></svg>
